X:49.5
T:Suite Plinn: Ton doubl 2
R:Breton
S:from Anna Pack, Dec 2022
L:1/8
M:4/4
G:sax
P:soprano: 6+x (go wild)
K:Fmaj
|:"Dm"D>E "Dm"FG A"F"B A2|"Gm7"BB "Gm7"AA G"Am"F E2:|
|:"Bbmaj7"E>F GA AG F2|"C"DF FE/2D/2 CD E2|"Gm7"E>F GA AG F2|"Am"F/2E/2D EF D2D2:|

